X: 35169
T: Ronnie Power's
R: jig
M: 6/8
K: Gmajor
|:ded BcB|AGA BGD|~E3 DEF|ABc BAG|
ded BcB|AGA BGD|E2E ABc|BAF G3:|
d2G eGG|d2G AGG|cBA GAB|c2G cde|
d2G ~G3|d2G AGG|cBA GAB|cGG e2d|
d2G eGG|d2G AGG|cBA cde|d2G c2c|
d2G eGG|d2G AGG|cBA cde|dAF G3||

